X:1
T:Title
%%score { ( 1 3 ) | ( 2 4 ) }
L:1/8
M:4/4
K:F
V:1 treble nm="Grand Piano"
V:3 treble 
V:2 bass 
V:4 bass 
V:1
 z4 z2[Q:1/4=100] FG | A2 A2 _A=Adc | c2 B2 B2 GA | B2 B2 [EA][EB][Be][Bd] | [Ad]2 [Ac]2 c2 FG | %5
 A2 A2 _A=A[^Fd][Fc] | [DGc]2 [DGB]2 [DGB]2 [DGB]2 | [CFA]2 [CFc][DFB] [CFA]2 [B,EG]2 | %8
[M:3/4] F2- [DF-]2 [CF]2 |[M:1/4] C2 |[M:4/4] A2 _A=A d2 c2 | B6 z2 | [EB]2 [EA][EB] [Be]2 [Bd]2 | %13
 c6 z2 | [Af]2 [Af]2 [Ge]2 [^CGA][CGA] | [DFd]2 [Fd]2 [Fc]2 [DGB]2 | %16
 [CFA]2 [CFc][DGB] [CFA]2 [B,EG]2 |[M:3/4] F6 |] %18
V:2
 z4 z2 [F,A,][F,B,F] | [F,CF]2 [F,CF]2 [F,=B,F][K:treble][F,CF][F,_B,F][F,A,F] | %2
 [G,CE]2 [G,CE]2 [G,CE]2 [B,CE][A,CF] | [G,CE]2 [G,CE]2 [C,C][C,C][C,C][E,C] | %4
 [F,F]2 [F,C]2 [F,A,F]2 [F,A,][F,B,F] | [F,CF]2 [F,CF]2 [F,=B,F][F,CF][D,D][D,D] | %6
 G,2 G,2 G,,2 G,,2 | C,2 A,,B,, C,2 C,2 |[M:3/4] z2 _A,2 =A,2 |[M:1/4] [F,A,]2 | %10
[M:4/4] [F,CF]2 [F,=B,F][F,CF] [F,B,F]2 [F,A,F]2 | [G,CE]2 [E,C]2 [C,C]2 C,2 | %12
 [C,C]2 [C,C][C,C] [C,C]2 [E,C]2 | F,2 C,2 F,2 [F,F][F,F] | [F,C]2 [F,C]2 [A,^C]2 A,,A,, | %15
 B,,2 [B,,B,]2 [F,A,]2 B,,2 | C,2 A,,B,, C,2 C,2 |[M:3/4] z2 _A,2 =A,2 |] %18
V:3
 x8 | x8 | x8 | x8 | x8 | x8 | x8 | x8 |[M:3/4] A,2 z2 z2 |[M:1/4] x2 |[M:4/4] x8 | z2 G2 G2 C2 | %12
 x8 | [CA]2 [EB]2 [FA]2 [Ac][Ac] | x8 | x8 | x8 |[M:3/4] A,2 D2 C2 |] %18
V:4
 x8 | x5[K:treble] x3 | x8 | x8 | x8 | x8 | x8 | x8 |[M:3/4] F,6 |[M:1/4] x2 |[M:4/4] x8 | x8 | %12
 x8 | x8 | x8 | x8 | x8 |[M:3/4] F,6 |] %18

